X:1
T:Blessed Light, 8.10.8.10.88
T:Blessed Light, 8.10.8.10.88
T:Anonymous, before 1931
T:Public Domain Courtesy of the Cyber Hymnal™
C:Anonymous, before 1931
Z:Public Domain
Z:Courtesy of the Cyber Hymnal™
%%score ( 1 2 ) ( 3 4 )
L:1/8
Q:1/4=113
M:none
K:F
V:1 treble 
V:2 treble 
V:3 bass 
V:4 bass 
V:1
 DF | A2 (GA) [EB]2 [FA]2 | [EG]2 [DF]2 !fermata![^CE]2 (EF) | G3 z E [DA]2 (FE) | %4
 D3 z E [DF]2 [^CE]2 | D6 (DF) | A2 (GA) [EB]2 [FA]2 | [EG]2 [DF]2 !fermata![^CE]2 (EF) | %8
 G3 z [DA]2 (FE) | D3 z E [DF]2 [^CE]2 | D6 ([FA][G^c]) | d2 z f2 [Ae]2 x | %12
 d2 [A^c]2 [Ad]2 [A=c]2 | [Gc]4 [GB]4 | [FA]2 [EG]2 [DF]2 (3(E{e}FE) | D6 |] %16
V:2
 DF | A2 F2 x4 | x6 D2 | D2 (^C2 x A,2) x2 | D2 D2 x5 | D6 x2 | A2 F2 x4 | x6 D2 | %8
 D2 (^C2 E) x A,2 | D2 D2 x5 | D6 x2 | A3 (A2 G) (FG) | (AG) x6 | x8 | x6 ^C2 | D6 |] %16
V:3
 D,F, | A,2 D2 [G,^C]2 [F,D]2 | [^C,A,]2 [D,A,]2 !fermata![A,,A,]2 ([G,B,][F,A,]) | %3
 [E,B,]2 A,2 [F,A,]2 A,2 x | [B,,A,]2 [B,,G,]2 [A,,A,]2 [A,,A,]2 x | [D,F,]6 (D,F,) | %6
 A,2 D2 [G,^C]2 [F,D]2 | [^C,A,]2 [D,A,]2 !fermata![A,,A,]2 ([G,B,][F,A,]) | %8
 [E,B,]2 A,2 [F,A,]2 A,2 | [B,,A,]2 [B,,G,]2 [A,,A,]2 [A,,A,]2 x | [D,F,]6 A,2 | %11
 A,2 z (A, =B,) [A,^C]2 x | [B,D]2 E2 [F,D]2 [^F,D]2 | [G,D]4 [C,E]4 | %14
 [F,C]2 [G,B,]2 A,2 [A,,G,]2 | [D,F,]6 |] %16
V:4
 D,F, | A,2 (B,A,) x4 | x8 | x2 A,2 (D,C,) x3 | x9 | x8 | A,2 (B,A,) x4 | x8 | x2 A,2 (D,C,) x2 | %9
 x9 | x6 (D,E,) | F,3 (A,2 E,) D,2 | x2 (A,G,) x4 | x8 | x4 A,2 x2 | x6 |] %16

